svgs/sharp-light/calculator.svg

<svg xmlns="http://www.w3.org/2000/svg" viewBox="0 0 384 512"><!--! Font Awesome Pro 6.6.0 by @fontawesome - https://fontawesome.com License - https://fontawesome.com/license (Commercial License) Copyright 2024 Fonticons, Inc. --><path d="M352 160l0 320L32 480l0-320 320 0zm0-32L32 128l0-96 320 0 0 96zm32 0l0-96 0-32L352 0 32 0 0 0 0 32l0 96 0 16 0 16L0 480l0 32 32 0 320 0 32 0 0-32 0-320 0-16 0-16zM72 224a24 24 0 1 0 48 0 24 24 0 1 0 -48 0zm24 72a24 24 0 1 0 0 48 24 24 0 1 0 0-48zm72-72a24 24 0 1 0 48 0 24 24 0 1 0 -48 0zm24 72a24 24 0 1 0 0 48 24 24 0 1 0 0-48zm72-72a24 24 0 1 0 48 0 24 24 0 1 0 -48 0zm24 72a24 24 0 1 0 0 48 24 24 0 1 0 0-48zM264 416a24 24 0 1 0 48 0 24 24 0 1 0 -48 0zm-56-16L80 400l-16 0 0 32 16 0 128 0 16 0 0-32-16 0z"/></svg>

<svg xmlns="http://www.w3.org/2000/svg" viewBox="0 0 384 512"><!--! Font Awesome Pro 6.4.2 by @fontawesome - https://fontawesome.com License - https://fontawesome.com/license (Commercial License) Copyright 2023 Fonticons, Inc. --><path d="M352 160V480H32V160H352zm0-32H32V32H352v96zm32 0V32 0H352 32 0V32v96 16 16V480v32H32 352h32V480 160 144 128zM72 224a24 24 0 1 0 48 0 24 24 0 1 0 -48 0zm24 72a24 24 0 1 0 0 48 24 24 0 1 0 0-48zm72-72a24 24 0 1 0 48 0 24 24 0 1 0 -48 0zm24 72a24 24 0 1 0 0 48 24 24 0 1 0 0-48zm72-72a24 24 0 1 0 48 0 24 24 0 1 0 -48 0zm24 72a24 24 0 1 0 0 48 24 24 0 1 0 0-48zM264 416a24 24 0 1 0 48 0 24 24 0 1 0 -48 0zm-56-16H80 64v32H80 208h16V400H208z"/></svg>
